X: 1
T:Constant Billy, Wheatley
M:6/8
L:1/8
S:CJS (MSS)
A:Wheatley
P:A(AB)4A
K:A
P:A
|:E|A2e cAc|d2B BGE|c2A FGA|EFG A2:|
P:B
z|cde f2d|Bcd ecA|cde f2d|Bcd e2G|
A2e cAc|d2B BGE|c2A FGA|EFG A2||
